shader_type canvas_item;

uniform vec4 tint;
uniform sampler2D screen_texture : hint_screen_texture, repeat_disable, filter_nearest;

void fragment() {
	vec4 color = texture(screen_texture, SCREEN_UV);
	COLOR = color * tint;
}
